packages/icons/src/assets/default/fullscreen-enter.svg

<svg width="18" height="18" viewBox="0 0 18 18" fill="none" xmlns="http://www.w3.org/2000/svg">
<path fill-rule="evenodd" clip-rule="evenodd" d="M9.57 3.617C9.414 3.242 9.051 3 8.646 3H4C3.448 3 3 3.449 3 4V8.646C3 9.052 3.242 9.415 3.618 9.57C3.742 9.621 3.873 9.646 4.001 9.646C4.262 9.646 4.516 9.544 4.707 9.353L9.354 4.706C9.64 4.419 9.725 3.991 9.57 3.617V3.617Z" fill="black"/>
<path fill-rule="evenodd" clip-rule="evenodd" d="M14.382 8.42901C14.005 8.27301 13.578 8.36101 13.293 8.64601L8.64596 13.293C8.35996 13.58 8.27496 14.008 8.42996 14.382C8.58596 14.757 8.94896 14.999 9.35396 14.999H14C14.552 14.999 15 14.55 15 13.999V9.35301C15 8.94701 14.758 8.58401 14.382 8.42901V8.42901Z" fill="black"/>
</svg>

<svg xmlns="http://www.w3.org/2000/svg" width="18" height="18" viewBox="0 0 18 18" fill="currentColor">
  <path
    d="M9.57,3.617c-.156-.375-.519-.617-.924-.617H4c-.552,0-1,.449-1,1v4.646c0,.406,.242,.769,.618,.924,.124,.051,.255,.076,.383,.076,.261,0,.515-.102,.706-.293l4.647-4.647c.286-.287,.371-.715,.216-1.089Z"
    class="arrow-1"
  />
  <path
    d="M14.382,8.429c-.377-.156-.804-.068-1.089,.217l-4.647,4.647c-.286,.287-.371,.715-.216,1.089,.156,.375,.519,.617,.924,.617h4.646c.552,0,1-.449,1-1v-4.646c0-.406-.242-.769-.618-.924Z"
    class="arrow-2"
  />
</svg>
